X:1
T:Title
%%score ( 1 2 ) { 3 | 4 }
L:1/8
Q:1/4=160
M:4/4
K:F
V:1 treble nm="Grand Piano, Soprano"
V:2 treble 
V:3 bass nm="Choir Pad, From Choirs Redeemed"
V:4 bass 
V:1
 C2 [CF]6 | [CG]2 [FA]6 | [EG]2 [FA]6 | [FB]2 [Fc]6 | [Fc]2 [Fd]6 | [Fd]2 [Fc]6 | %6
w: By~William~Fletcher~McCauley *||||||
 [FA]2 [Fc]4 [EB]2 | [FA]2 [EG]6 | [CG]2 [CF]6 | [CF]2 [FA]6 | [EG]2 [FA]6 | [EB]2 [Fc]6 | %12
w: ||||||
 [Fc]2 [Fd]2 [Fe]2 [Ff]2 | [Fd]2 [Fc]6 | [GB]2 [FA]4 [CG]2- | [CG]2 [CF]6 | C2 F2 F2 F2 | %17
w: |||||
 G2 A2 A2 A2 | [CG]2 [CA]2 [CA]2 [CA]2 | [FB]2 [Fc]2 [Fc]2 [Fc]2 | [Fc]2 [Fd]2 [Fd]2 [Fd]2 | %21
w: ||||
 [Ac][GB] [Fc]2 [Fc]2 [Fc]2 | BG [EB]2 [EB]2 [FA]2 | [EG]2 [FA][EG] [FA][GB] [Ac]2 | [Fc]2 [Fd]6 | %25
w: ||||
 [Ac][GB] [Fc]6 | BA [EB]4 [FA]2 | [EG]2 [FA]6 | [Fc]2 [Fd]6 | [Ac][GB] [Fc]6 | %30
w: |||||
 [DF][FB] [FA]4 [CG]2- | [CG]2 [CF]6- | [CF]6 z2 |] %33
w: |||
V:2
 x8 | x8 | x8 | x8 | x8 | x8 | x8 | x8 | x8 | x8 | x8 | x8 | x8 | x8 | x8 | x8 | x8 | x8 | x8 | %19
 x8 | x8 | x8 | F2 z2 z4 | x8 | x8 | x8 | F2 z2 z4 | x8 | x8 | x8 | x8 | x8 | x8 |] %33
V:3
 A,2 A,6 | B,2 C6 | C2 C6 | G,2 A,6 | C2 B,6 | B,2 A,6 | C2 C4 C2- | C2 C6 | B,2 A,6 | B,2 C6 | %10
 C2[K:treble] C6 | C2 C6 | C2 B,2 C2 D2 | B,2 A,6 | D2 C4 C2 | B,2 A,6 | z8 | C,2 F,2 F,2 F,2 | %18
 E,2 F,2 F,2 F,2 | G,2 A,2 A,2 A,2 | A,2 B,6 | F,2 F,6 | F,[K:treble]C C6 | C2 C6 | %24
 A,2[K:bass] B,2 B,2 B,2 | F,2 F,2 F,2 F,2 | F,[K:treble]C C2 C2 C2 | C2[K:bass] A,G, A,B, C2 | %28
 A,2 B,6 | F,2 F,6 | F,[K:treble]D C4 C2 | B,2 A,6- | A,6 z2 |] %33
V:4
 F,2 F,6 | F,2 F,6 | C,2 F,6 | F,2 F,6 | A,,2 B,,6 | B,,2 F,6 | F,2 A,4 G,2 | F,2 C,6 | E,2 F,6 | %9
 F,2 F,6 | C,2 F,6 | G,2 A,6 | A,,2 B,,2 B,,2 B,,2 | D,2 F,6 | B,,2 C,4 C,2- | C,2 F,6 | z8 | z8 | %18
 z8 | F,2 F,2 F,2 F,2 | F,2 B,,6 | B,,2 A,,6 | A,,2 C,6 | C,2 G,6 | F,2 B,,2 B,,2 B,,2 | %25
 B,,2 A,,2 A,,2 A,,2 | A,,2 C,2 C,2 C,2 | C,2 F,E, F,G, A,2 | F,2 B,,6 | B,,2 A,,6 | %30
 B,,2 C,4 C,2- | C,2 F,6- | F,6 z2 |] %33

